Pods/ProtonCore-UIFoundations/libraries/UIFoundations/Sources/Assets.xcassets/Images/IconSet/ic-brand-proton-vpn.imageset/ic-brand-proton-vpn.svg

<svg width="24" height="24" viewBox="0 0 24 24" fill="none" xmlns="http://www.w3.org/2000/svg">
<path fill-rule="evenodd" clip-rule="evenodd" d="M1.81375 5.823C0.855557 4.11066 2.24544 2.0346 4.19369 2.26806L20.389 4.20879C22.1449 4.41921 23.0779 6.39202 22.1265 7.88284L13.9414 20.709C13.0262 22.143 10.9119 22.0819 10.0812 20.5973L1.81375 5.823ZM4.01522 3.75741C3.28462 3.66986 2.76342 4.44839 3.12274 5.09051L3.53283 5.82336L16.4552 7.55975C17.2845 7.67118 17.7137 8.60969 17.2556 9.30989L10.9107 19.0079L11.3902 19.8648C11.6671 20.3597 12.3719 20.3801 12.6769 19.902L20.8621 7.0759C21.2189 6.51685 20.869 5.77705 20.2105 5.69814L4.01522 3.75741Z" fill="#0C0C14"/>
</svg>

<svg xmlns="http://www.w3.org/2000/svg" width="24" height="24" viewBox="0 0 24 24">
  <g class="ic-brand-proton-vpn">
    <path fill-rule="evenodd" d="M1.814 5.823c-.958-1.712.432-3.788 2.38-3.555l16.196 1.94c1.756.211 2.689 2.184 1.737 3.675l-8.185 12.826c-.915 1.434-3.03 1.373-3.86-.112L1.814 5.823Zm2.202-2.066a.9.9 0 0 0-.893 1.334l.41.732L16.457 7.56c.83.111 1.258 1.05.8 1.75l-6.345 9.698.48.857a.75.75 0 0 0 1.287.037l8.185-12.826a.9.9 0 0 0-.652-1.378L4.016 3.758Z" class="Icon"/>
  </g>
</svg>
